X: 9111
T: Da South End
R: jig
M: 6/8
K: Amajor
|:e|cAA dBB|ecc fdd|ecc acA|GBB B2 e|
cAA d2 B|ecc f2 d|eag fed|cAG A2:|
|:g|acc eAA|EAA cAA|ecc acA|
[1 GBB B2 g|acc eAA|EAA cAA|Bcd efg|acA e2:|
[2 GBB B2 e|cAA d2 B|ecc f2 d|eag fed|cAG A2||

